X: 16338
T: Gueirúa
R: reel
M: 4/4
K: Bminor
BF FE FD FA|Bd BA FE fd|e2 ed B2 BA|(3Bcd cA FE BA|
BF FE FD FA|Bd BA FE fd|e2 ed B2 BA|1 (3Bcd cA B2 BA:|2 (3Bcd cA FE gf||
e2 ed B2 BA|(3Bcd fd eB gf|e2 ed B2 BA|(3Bcd cA FE gf|
e2 ed B2 BA|(3Bcd fd eB ag|e2 ed B2 BA|(3Bcd cA FE BA||

